X: 423
T: Bonnie Kate
B: jims roots
M:4/4
L:1/8
R: reel
Q: 1/4=100
K:Dmaj
V:1 
||:dB| "D"A2dA (3Bcd AF | DFAF "A7"EA,CE |"D"DFAF "G"GBed | "A7"cABc "D"d2 dB |
"D"A2dA BdAF | DFAF "A7"EGFE |"D"DFAF "G"GBed |"A7"cABc "D"d2 :||
|: fg | "D"(3aba fd Adfa | "A"(3gag ec Acef | "G"~g3f gbag | "A"fgef "D"d2 ef |
"D"(3aba fd Adfa | "A"(3gag ec Acef | "G"~g3f gbag | "A"fgef "D"d2 :||
% abcbook-tune_id 6298c2452a58db9e490f8764


% abcbook-boost 0
% abcbook-tablature 
% abcbook-transpose 
% abcbook-lastupdated 1654178373466
% abcbook-soundfonts 
% abcbook-repeats 1


